X:0
T:Tuned In
M:C|
C:© Paul Gitlitz 2007
R:Reel
K:Dm
de|"Dm"fedc AGFA|"C"GECE "Dm"FGAd|fedc AGFA|"C"GECE "Dm"DAde|!
"Dm"fedc AGFA|"C"GECE "Dm"FGAd|fedc AGFA|"C"GECE "Dm"D2:|!
|DC|:"Dm"A,DFA, "Bb"B,DFB,|"C"CEGB "Dm"AGFD|A,DFA, "Bb"B,DFB,|"C"CEGB "Dm"AFDC|!
"Dm"A,DFA, "Bb"B,DFB,|"C"CEGB "Dm"AGFD|A,DFA, "Bb"B,DFB,|"C"CEGB "Dm"AFD2:|]
